!!!!SEGMENT: pl-wnifc--13846--140_anonim--piesni-polskie-i-ruskie-ludu-galicyjskiego-140-oj-idu-ja-do-kiernyci.krn
!!!kernsource:
!!!cenid: 18xx:3362
!!!COM: Anonim
!!!COM-rismID: pe30004985
!!!CDT:
!!!CNT:
!!!GTL: Pieśni polskie i ruskie ludu galicyjskiego
!!!OTL: 140. Oj idu ja do kiernyci
!!!OMV: 140
!!!PDT: 1833
!!!AGN:
!!!SMS-siglum: PL-Wnifc
!!!SMS-shelfmark: 13846
!!!SMS-shelfwork: 001-140 G
!!!NIFC-rismSourceID: 1001036701
!!!NIFC-rismChildID: 1001039656
!!!NIFC-islandoraID: nifc:210326
!!!URL-pdf-islandora: https://repozytorium.nifc.pl/islandora/object/nifc%3A210326/datastream/PDF/view
!!!URL-scan:
!!!IIIF:
!!!ONB-nifc:
!!!OMD: Vivace
!!!AIN: 1 piano 1 vox
!!!key: d
**kern	**kern	**kern	**text
*part2	*part2	*part1	*part1
*staff3	*staff2	*staff1	*staff1
*I"FORTEPIAN.	*I"FORTEPIAN.	*I"GŁOS.	*
*Ipiano	*Ipiano	*Ivox	*
*ICklav	*ICklav	*ICvox	*
*IGacmp	*IGacmp	*IGsolo	*
*clefF4	*clefG2	*clefG2	*
*k[b-]	*k[b-]	*k[b-]	*
*d:	*d:	*d:	*
*M2/4	*M2/4	*M2/4	*
=1	=1	=1	=1
*tremolo	*	*	*
!LO:TX:b:t=''''	!LO:TX:a:t=E.234.:rj	!	!
8D/ 8DD/|L	8aa\L 8ff\ 8dd\|	8a/	Oj
8D/ 8DD/|	8aa\J 8ff\ 8dd\|	8a/	i-
8D/ 8DD/|	8gg#X\L 8ff\ 8dd\|	8g#X/	-du
8D/ 8DD/|J	(>16gg#\L 16ff\ 16dd\	(<16g#/LL	ja
.	16bbn\JJ)	16bn\JJ)	.
=2	=2	=2	=2
!LO:TX:b:t=''''	!	!	!
8D/ 8DD/|L	8aa\L 8ff\ 8dd\	8a/	do
8D/ 8DD/|	8aa\J 8ff\ 8dd\	8a/	kier-
8D/ 8DD/|	8gg#X\L 8ff\ 8dd\	8g#X/	-ny-
8D/ 8DD/|J	(>16gg#\L 16ff\ 16dd\	(<16g#/LL	-ci
.	16bbn\JJ)	16bn\JJ)	.
!!LO:LB:g=original
=3	=3	=3	=3
!LO:TX:b:t=....	!	!	!
8D/ 8DD/'L	8aa\L 8ff\ 8dd\	8a/	po
8D/ 8DD/'	8aa\J 8ff\ 8dd\	8a/	stu-
8D/ 8DD/'	8gg#X\L 8ff\ 8dd\	8g#X/	-den-
8D/ 8DD/'J	8gg#\J 8ff\ 8dd\	8g#/	-nu
*Xtremolo	*	*	*
=4	=4	=4	=4
4D/ 4DD/	8.aa\L	(<8.a/L	wo-
.	16ggn\Jk	16gn/Jk)	.
4D/ 4DD/	(>8.ff\L	(<8.f/L	-du,
.	32ee\LL	32e/LL	.
.	32dd\JJJ)	32d/JJJ)	.
!!LO:LB:g=original
=5!|:	=5!|:	=5!|:	=5!|:
8A\L 8G\ 8C#X\ 8AA\	8ee\|L	8e/	a
8A\ 8G\ 8C#\ 8AA\	8aa\|J	8a/	mij
8A\ 8G\ 8E\ 8AA\	8a/|L	8A/	my-
8A\J 8G\ 8E\ 8AA\	8cc#X/|J	8c#X/	-łyj,
=6	=6	=6	=6
8A\L 8F\ 8D\ 8AA\	8dd\|L	8d/	czor-
8A\ 8F\ 8D\ 8AA\	8dd\|J	8d/	-no-
8A\ 8F\ 8D\ 8AA\	8dd\|L	8d/	-bry-
8A\J 8F\ 8D\ 8AA\	8ff\|J	8f/	-wyj
!!LO:LB:g=original
=7	=7	=7	=7
8A\L 8G\ 8C#X\ 8AA\	8ee\|L	8e/	kru-
8A\J 8G\ 8C#\ 8AA\	8aa\|J	8a/	-hła-
8A\L 8G\ 8E\ 8AA\	8a/L	8A/	-je
8A\J 8G\ 8E\ 8AA\	8cc#X/J	8c#X/	ko-
=8	=8	=8	=8
4A\ 4F\ 4D\	4dd\	4d/	-ło-
4A\ 4F\ 4D\	8dd\	8d/	-du.
.	8r	8r	.
==	==	==	==
*-	*-	*-	*-
!!!system-decoration: <s1>{(s2,s3)}
!!!RDF**kern: > = above
!!!RDF**kern: < = below
!!!RDF**kern: | = vertical stroke
!!!ENC: Emilia Ziętek
!!!END: 2021-10-12
!!!ENC: Andrzej Kubiczek
!!!END: 2021-11-12
!!!YEC: Copyright 2022 Narodowy Instytut Fryderyka Chopina (https://polishscores.org)
!!!YEM: License CC-BY-4.0 (https://creativecommons.org/licenses/by/4.0)
